X: 20
T:Magic Kingdom, The
M:12/8
L:1/8
C:Dan Flynn
R:Slide
K:DMix
A2F A2F BAG F2E|FGA FAd cz">"c- c2B|!
A2F A2F BAG F2E|FGA GFE D3 DFG||!
A2F A2F BAG "var."FGE|FGA FAd cz">"c- c2B|!
A2F A2F BAG F2E|FGA GFE D3 D3|]!
f2d def g2b a2g|f2d def e3 ede|!
f2d def g2b a2g|fed ed^c d3 d2e||!
f2d def g2b a2g|f2d def e3 ede|!
f2d def g2b a2g|fed ed^c d3 d3|]!
